X: 16
T: Birthday Jig, The
I: Birthday Jig, TheJ-49Gjig
C: Laura Davidson
M: 6/8
R: jig
K: G
"G"GDE G3| "D"AdB ABA| "C"GED G2A| "D"BAB GED|
"G"GDE G3| "D"AdB ABA| "C"GED G2A| "D"BGG "G"G3:|
|:\
"Em"Bed BBA| "C(no E)"GAB "D(no F#)"GAB| "Em"Bed Bef| "G"ged BAG|
"Em"Bed BBA| "C"GAB GED| "G"GDE G2A| "D"BGG "G"G3:|
%%text Roaring Jelly  J-49
%%text 08/29/98
